X:1
T: The Birks of Invermay
T: 8x32S 3C (RSCDS Book 16)
P: Birks of Invermay
C: Arr. T. Traub 8-11-96, rev. 6-28-00, 4-26-04
K: G
M: 4/4
L: 1/8
B>c|"G"d3 e d>BA>G|"D"A>G AE DD|"G"B,2 D>E "D"D2 G>B|"G"d2 "C"ef/g/ "G"dG|
"Am"c>BAG "C"E2 "D"B>A|"G"G>ED>B, D2 G>A|"D"B2 A>G "G"G2 || "D"D>C|"G" B,3 D E>D E<G|"D"A>G A<B "C"E2 e2|
"G"d>ed>B "Em"c>B A<G|"Am"c>dc>B "D"A2 d>c|"G"Bdef "Em"g3 e|"G"d>BA>G "C"E2 "D"B>A|"G"G>ED>B, "Em7"D2 G>A|"D"B2 A>G "G"G2 |]
